color_luts/test_warm.cube
TITLE "Test Warm LUT"
LUT_3D_SIZE 17
DOMAIN_MIN 0.0 0.0 0.0
DOMAIN_MAX 1.0 1.0 1.0
0.050000 0.000000 0.000000
0.112500 0.000000 0.000000
0.175000 0.000000 0.000000
0.237500 0.000000 0.000000
0.300000 0.000000 0.000000
0.362500 0.000000 0.000000
0.425000 0.000000 0.000000
0.487500 0.000000 0.000000
0.550000 0.000000 0.000000
0.612500 0.000000 0.000000
0.675000 0.000000 0.000000
0.737500 0.000000 0.000000
0.800000 0.000000 0.000000
0.862500 0.000000 0.000000
0.925000 0.000000 0.000000
0.987500 0.000000 0.000000
1.000000 0.000000 0.000000
0.050000 0.062500 0.000000
0.112500 0.062500 0.000000
0.175000 0.062500 0.000000
0.237500 0.062500 0.000000
0.300000 0.062500 0.000000
0.362500 0.062500 0.000000
0.425000 0.062500 0.000000
0.487500 0.062500 0.000000
0.550000 0.062500 0.000000
0.612500 0.062500 0.000000
0.675000 0.062500 0.000000
0.737500 0.062500 0.000000
0.800000 0.062500 0.000000
0.862500 0.062500 0.000000
0.925000 0.062500 0.000000
0.987500 0.062500 0.000000
1.000000 0.062500 0.000000
0.050000 0.125000 0.000000
0.112500 0.125000 0.000000
0.175000 0.125000 0.000000
0.237500 0.125000 0.000000
0.300000 0.125000 0.000000
0.362500 0.125000 0.000000
0.425000 0.125000 0.000000
0.487500 0.125000 0.000000
0.550000 0.125000 0.000000
0.612500 0.125000 0.000000
0.675000 0.125000 0.000000
0.737500 0.125000 0.000000
0.800000 0.125000 0.000000
0.862500 0.125000 0.000000
0.925000 0.125000 0.000000
0.987500 0.125000 0.000000
1.000000 0.125000 0.000000
0.050000 0.187500 0.000000
0.112500 0.187500 0.000000
0.175000 0.187500 0.000000
0.237500 0.187500 0.000000
0.300000 0.187500 0.000000
0.362500 0.187500 0.000000
0.425000 0.187500 0.000000
0.487500 0.187500 0.000000
0.550000 0.187500 0.000000
0.612500 0.187500 0.000000
0.675000 0.187500 0.000000
0.737500 0.187500 0.000000
0.800000 0.187500 0.000000
0.862500 0.187500 0.000000
0.925000 0.187500 0.000000
0.987500 0.187500 0.000000
1.000000 0.187500 0.000000
0.050000 0.250000 0.000000
0.112500 0.250000 0.000000
0.175000 0.250000 0.000000
0.237500 0.250000 0.000000
0.300000 0.250000 0.000000
0.362500 0.250000 0.000000
0.425000 0.250000 0.000000
0.487500 0.250000 0.000000
0.550000 0.250000 0.000000
0.612500 0.250000 0.000000
0.675000 0.250000 0.000000
0.737500 0.250000 0.000000
0.800000 0.250000 0.000000
0.862500 0.250000 0.000000
0.925000 0.250000 0.000000
0.987500 0.250000 0.000000
1.000000 0.250000 0.000000
0.050000 0.312500 0.000000
0.112500 0.312500 0.000000
0.175000 0.312500 0.000000
0.237500 0.312500 0.000000
0.300000 0.312500 0.000000
0.362500 0.312500 0.000000
0.425000 0.312500 0.000000
0.487500 0.312500 0.000000
0.550000 0.312500 0.000000
0.612500 0.312500 0.000000
0.675000 0.312500 0.000000
0.737500 0.312500 0.000000
0.800000 0.312500 0.000000
0.862500 0.312500 0.000000
0.925000 0.312500 0.000000
0.987500 0.312500 0.000000
1.000000 0.312500 0.000000
0.050000 0.375000 0.000000
0.112500 0.375000 0.000000
0.175000 0.375000 0.000000
0.237500 0.375000 0.000000
0.300000 0.375000 0.000000
0.362500 0.375000 0.000000
0.425000 0.375000 0.000000
0.487500 0.375000 0.000000
0.550000 0.375000 0.000000
0.612500 0.375000 0.000000
0.675000 0.375000 0.000000
0.737500 0.375000 0.000000
0.800000 0.375000 0.000000
0.862500 0.375000 0.000000
0.925000 0.375000 0.000000
0.987500 0.375000 0.000000
1.000000 0.375000 0.000000
0.050000 0.437500 0.000000
0.112500 0.437500 0.000000
0.175000 0.437500 0.000000
0.237500 0.437500 0.000000
0.300000 0.437500 0.000000
0.362500 0.437500 0.000000
0.425000 0.437500 0.000000
0.487500 0.437500 0.000000
0.550000 0.437500 0.000000
0.612500 0.437500 0.000000
0.675000 0.437500 0.000000
0.737500 0.437500 0.000000
0.800000 0.437500 0.000000
0.862500 0.437500 0.000000
0.925000 0.437500 0.000000
0.987500 0.437500 0.000000
1.000000 0.437500 0.000000
0.050000 0.500000 0.000000
0.112500 0.500000 0.000000
0.175000 0.500000 0.000000
0.237500 0.500000 0.000000
0.300000 0.500000 0.000000
0.362500 0.500000 0.000000
0.425000 0.500000 0.000000
0.487500 0.500000 0.000000
0.550000 0.500000 0.000000
0.612500 0.500000 0.000000
0.675000 0.500000 0.000000
0.737500 0.500000 0.000000
0.800000 0.500000 0.000000
0.862500 0.500000 0.000000
0.925000 0.500000 0.000000
0.987500 0.500000 0.000000
1.000000 0.500000 0.000000
0.050000 0.562500 0.000000
0.112500 0.562500 0.000000
0.175000 0.562500 0.000000
0.237500 0.562500 0.000000
0.300000 0.562500 0.000000
0.362500 0.562500 0.000000
0.425000 0.562500 0.000000
0.487500 0.562500 0.000000
0.550000 0.562500 0.000000
0.612500 0.562500 0.000000
0.675000 0.562500 0.000000
0.737500 0.562500 0.000000
0.800000 0.562500 0.000000
0.862500 0.562500 0.000000
0.925000 0.562500 0.000000
0.987500 0.562500 0.000000
1.000000 0.562500 0.000000
0.050000 0.625000 0.000000
0.112500 0.625000 0.000000
0.175000 0.625000 0.000000
0.237500 0.625000 0.000000
0.300000 0.625000 0.000000
0.362500 0.625000 0.000000
0.425000 0.625000 0.000000
0.487500 0.625000 0.000000
0.550000 0.625000 0.000000
0.612500 0.625000 0.000000
0.675000 0.625000 0.000000
0.737500 0.625000 0.000000
0.800000 0.625000 0.000000
0.862500 0.625000 0.000000
0.925000 0.625000 0.000000
0.987500 0.625000 0.000000
1.000000 0.625000 0.000000
0.050000 0.687500 0.000000
0.112500 0.687500 0.000000
0.175000 0.687500 0.000000
0.237500 0.687500 0.000000
0.300000 0.687500 0.000000
0.362500 0.687500 0.000000
0.425000 0.687500 0.000000
0.487500 0.687500 0.000000
0.550000 0.687500 0.000000
0.612500 0.687500 0.000000
0.675000 0.687500 0.000000
0.737500 0.687500 0.000000
0.800000 0.687500 0.000000
0.862500 0.687500 0.000000
0.925000 0.687500 0.000000
0.987500 0.687500 0.000000
1.000000 0.687500 0.000000
0.050000 0.750000 0.000000
0.112500 0.750000 0.000000
0.175000 0.750000 0.000000
0.237500 0.750000 0.000000
0.300000 0.750000 0.000000
0.362500 0.750000 0.000000
0.425000 0.750000 0.000000
0.487500 0.750000 0.000000
0.550000 0.750000 0.000000
0.612500 0.750000 0.000000
0.675000 0.750000 0.000000
0.737500 0.750000 0.000000
0.800000 0.750000 0.000000
0.862500 0.750000 0.000000
0.925000 0.750000 0.000000
0.987500 0.750000 0.000000
1.000000 0.750000 0.000000
0.050000 0.812500 0.000000
0.112500 0.812500 0.000000
0.175000 0.812500 0.000000
0.237500 0.812500 0.000000
0.300000 0.812500 0.000000
0.362500 0.812500 0.000000
0.425000 0.812500 0.000000
0.487500 0.812500 0.000000
0.550000 0.812500 0.000000
0.612500 0.812500 0.000000
0.675000 0.812500 0.000000
0.737500 0.812500 0.000000
0.800000 0.812500 0.000000
0.862500 0.812500 0.000000
0.925000 0.812500 0.000000
0.987500 0.812500 0.000000
1.000000 0.812500 0.000000
0.050000 0.875000 0.000000
0.112500 0.875000 0.000000
0.175000 0.875000 0.000000
0.237500 0.875000 0.000000
0.300000 0.875000 0.000000
0.362500 0.875000 0.000000
0.425000 0.875000 0.000000
0.487500 0.875000 0.000000
0.550000 0.875000 0.000000
0.612500 0.875000 0.000000
0.675000 0.875000 0.000000
0.737500 0.875000 0.000000
0.800000 0.875000 0.000000
0.862500 0.875000 0.000000
0.925000 0.875000 0.000000
0.987500 0.875000 0.000000
1.000000 0.875000 0.000000
0.050000 0.937500 0.000000
0.112500 0.937500 0.000000
0.175000 0.937500 0.000000
0.237500 0.937500 0.000000
0.300000 0.937500 0.000000
0.362500 0.937500 0.000000
0.425000 0.937500 0.000000
0.487500 0.937500 0.000000
0.550000 0.937500 0.000000
0.612500 0.937500 0.000000
0.675000 0.937500 0.000000
0.737500 0.937500 0.000000
0.800000 0.937500 0.000000
0.862500 0.937500 0.000000
0.925000 0.937500 0.000000
0.987500 0.937500 0.000000
1.000000 0.937500 0.000000
0.050000 1.000000 0.000000
0.112500 1.000000 0.000000
0.175000 1.000000 0.000000
0.237500 1.000000 0.000000
0.300000 1.000000 0.000000
0.362500 1.000000 0.000000
0.425000 1.000000 0.000000
0.487500 1.000000 0.000000
0.550000 1.000000 0.000000
0.612500 1.000000 0.000000
0.675000 1.000000 0.000000
0.737500 1.000000 0.000000
0.800000 1.000000 0.000000
0.862500 1.000000 0.000000
0.925000 1.000000 0.000000
0.987500 1.000000 0.000000
1.000000 1.000000 0.000000
0.050000 0.000000 0.012500
0.112500 0.000000 0.012500
0.175000 0.000000 0.012500
0.237500 0.000000 0.012500
0.300000 0.000000 0.012500
0.362500 0.000000 0.012500
0.425000 0.000000 0.012500
0.487500 0.000000 0.012500
0.550000 0.000000 0.012500
0.612500 0.000000 0.012500
0.675000 0.000000 0.012500
0.737500 0.000000 0.012500
0.800000 0.000000 0.012500
0.862500 0.000000 0.012500
0.925000 0.000000 0.012500
0.987500 0.000000 0.012500
1.000000 0.000000 0.012500
0.050000 0.062500 0.012500
0.112500 0.062500 0.012500
0.175000 0.062500 0.012500
0.237500 0.062500 0.012500
0.300000 0.062500 0.012500
0.362500 0.062500 0.012500
0.425000 0.062500 0.012500
0.487500 0.062500 0.012500
0.550000 0.062500 0.012500
0.612500 0.062500 0.012500
0.675000 0.062500 0.012500
0.737500 0.062500 0.012500
0.800000 0.062500 0.012500
0.862500 0.062500 0.012500
0.925000 0.062500 0.012500
0.987500 0.062500 0.012500
1.000000 0.062500 0.012500
0.050000 0.125000 0.012500
0.112500 0.125000 0.012500
0.175000 0.125000 0.012500
0.237500 0.125000 0.012500
0.300000 0.125000 0.012500
0.362500 0.125000 0.012500
0.425000 0.125000 0.012500
0.487500 0.125000 0.012500
0.550000 0.125000 0.012500
0.612500 0.125000 0.012500
0.675000 0.125000 0.012500
0.737500 0.125000 0.012500
0.800000 0.125000 0.012500
0.862500 0.125000 0.012500
0.925000 0.125000 0.012500
0.987500 0.125000 0.012500
1.000000 0.125000 0.012500
0.050000 0.187500 0.012500
0.112500 0.187500 0.012500
0.175000 0.187500 0.012500
0.237500 0.187500 0.012500
0.300000 0.187500 0.012500
0.362500 0.187500 0.012500
0.425000 0.187500 0.012500
0.487500 0.187500 0.012500
0.550000 0.187500 0.012500
0.612500 0.187500 0.012500
0.675000 0.187500 0.012500
0.737500 0.187500 0.012500
0.800000 0.187500 0.012500
0.862500 0.187500 0.012500
0.925000 0.187500 0.012500
0.987500 0.187500 0.012500
1.000000 0.187500 0.012500
0.050000 0.250000 0.012500
0.112500 0.250000 0.012500
0.175000 0.250000 0.012500
0.237500 0.250000 0.012500
0.300000 0.250000 0.012500
0.362500 0.250000 0.012500
0.425000 0.250000 0.012500
0.487500 0.250000 0.012500
0.550000 0.250000 0.012500
0.612500 0.250000 0.012500
0.675000 0.250000 0.012500
0.737500 0.250000 0.012500
0.800000 0.250000 0.012500
0.862500 0.250000 0.012500
0.925000 0.250000 0.012500
0.987500 0.250000 0.012500
1.000000 0.250000 0.012500
0.050000 0.312500 0.012500
0.112500 0.312500 0.012500
0.175000 0.312500 0.012500
0.237500 0.312500 0.012500
0.300000 0.312500 0.012500
0.362500 0.312500 0.012500
0.425000 0.312500 0.012500
0.487500 0.312500 0.012500
0.550000 0.312500 0.012500
0.612500 0.312500 0.012500
0.675000 0.312500 0.012500
0.737500 0.312500 0.012500
0.800000 0.312500 0.012500
0.862500 0.312500 0.012500
0.925000 0.312500 0.012500
0.987500 0.312500 0.012500
1.000000 0.312500 0.012500
0.050000 0.375000 0.012500
0.112500 0.375000 0.012500
0.175000 0.375000 0.012500
0.237500 0.375000 0.012500
0.300000 0.375000 0.012500
0.362500 0.375000 0.012500
0.425000 0.375000 0.012500
0.487500 0.375000 0.012500
0.550000 0.375000 0.012500
0.612500 0.375000 0.012500
0.675000 0.375000 0.012500
0.737500 0.375000 0.012500
0.800000 0.375000 0.012500
0.862500 0.375000 0.012500
0.925000 0.375000 0.012500
0.987500 0.375000 0.012500
1.000000 0.375000 0.012500
0.050000 0.437500 0.012500
0.112500 0.437500 0.012500
0.175000 0.437500 0.012500
0.237500 0.437500 0.012500
0.300000 0.437500 0.012500
0.362500 0.437500 0.012500
0.425000 0.437500 0.012500
0.487500 0.437500 0.012500
0.550000 0.437500 0.012500
0.612500 0.437500 0.012500
0.675000 0.437500 0.012500
0.737500 0.437500 0.012500
0.800000 0.437500 0.012500
0.862500 0.437500 0.012500
0.925000 0.437500 0.012500
0.987500 0.437500 0.012500
1.000000 0.437500 0.012500
0.050000 0.500000 0.012500
0.112500 0.500000 0.012500
0.175000 0.500000 0.012500
0.237500 0.500000 0.012500
0.300000 0.500000 0.012500
0.362500 0.500000 0.012500
0.425000 0.500000 0.012500
0.487500 0.500000 0.012500
0.550000 0.500000 0.012500
0.612500 0.500000 0.012500
0.675000 0.500000 0.012500
0.737500 0.500000 0.012500
0.800000 0.500000 0.012500
0.862500 0.500000 0.012500
0.925000 0.500000 0.012500
0.987500 0.500000 0.012500
1.000000 0.500000 0.012500
0.050000 0.562500 0.012500
0.112500 0.562500 0.012500
0.175000 0.562500 0.012500
0.237500 0.562500 0.012500
0.300000 0.562500 0.012500
0.362500 0.562500 0.012500
0.425000 0.562500 0.012500
0.487500 0.562500 0.012500
0.550000 0.562500 0.012500
0.612500 0.562500 0.012500
0.675000 0.562500 0.012500
0.737500 0.562500 0.012500
0.800000 0.562500 0.012500
0.862500 0.562500 0.012500
0.925000 0.562500 0.012500
0.987500 0.562500 0.012500
1.000000 0.562500 0.012500
0.050000 0.625000 0.012500
0.112500 0.625000 0.012500
0.175000 0.625000 0.012500
0.237500 0.625000 0.012500
0.300000 0.625000 0.012500
0.362500 0.625000 0.012500
0.425000 0.625000 0.012500
0.487500 0.625000 0.012500
0.550000 0.625000 0.012500
0.612500 0.625000 0.012500
0.675000 0.625000 0.012500
0.737500 0.625000 0.012500
0.800000 0.625000 0.012500
0.862500 0.625000 0.012500
0.925000 0.625000 0.012500
0.987500 0.625000 0.012500
1.000000 0.625000 0.012500
0.050000 0.687500 0.012500
0.112500 0.687500 0.012500
0.175000 0.687500 0.012500
0.237500 0.687500 0.012500
0.300000 0.687500 0.012500
0.362500 0.687500 0.012500
0.425000 0.687500 0.012500
0.487500 0.687500 0.012500
0.550000 0.687500 0.012500
0.612500 0.687500 0.012500
0.675000 0.687500 0.012500
0.737500 0.687500 0.012500
0.800000 0.687500 0.012500
0.862500 0.687500 0.012500
0.925000 0.687500 0.012500
0.987500 0.687500 0.012500
1.000000 0.687500 0.012500
0.050000 0.750000 0.012500
0.112500 0.750000 0.012500
0.175000 0.750000 0.012500
0.237500 0.750000 0.012500
0.300000 0.750000 0.012500
0.362500 0.750000 0.012500
0.425000 0.750000 0.012500
0.487500 0.750000 0.012500
0.550000 0.750000 0.012500
0.612500 0.750000 0.012500
0.675000 0.750000 0.012500
0.737500 0.750000 0.012500
0.800000 0.750000 0.012500
0.862500 0.750000 0.012500
0.925000 0.750000 0.012500
0.987500 0.750000 0.012500
1.000000 0.750000 0.012500
0.050000 0.812500 0.012500
0.112500 0.812500 0.012500
0.175000 0.812500 0.012500
0.237500 0.812500 0.012500
0.300000 0.812500 0.012500
0.362500 0.812500 0.012500
0.425000 0.812500 0.012500
0.487500 0.812500 0.012500
0.550000 0.812500 0.012500
0.612500 0.812500 0.012500
0.675000 0.812500 0.012500
0.737500 0.812500 0.012500
0.800000 0.812500 0.012500
0.862500 0.812500 0.012500
0.925000 0.812500 0.012500
0.987500 0.812500 0.012500
1.000000 0.812500 0.012500
0.050000 0.875000 0.012500
0.112500 0.875000 0.012500
0.175000 0.875000 0.012500
0.237500 0.875000 0.012500
0.300000 0.875000 0.012500
0.362500 0.875000 0.012500
0.425000 0.875000 0.012500
0.487500 0.875000 0.012500
0.550000 0.875000 0.012500
0.612500 0.875000 0.012500
0.675000 0.875000 0.012500
0.737500 0.875000 0.012500
0.800000 0.875000 0.012500
0.862500 0.875000 0.012500
0.925000 0.875000 0.012500
0.987500 0.875000 0.012500
1.000000 0.875000 0.012500
0.050000 0.937500 0.012500
0.112500 0.937500 0.012500
0.175000 0.937500 0.012500
0.237500 0.937500 0.012500
0.300000 0.937500 0.012500
0.362500 0.937500 0.012500
0.425000 0.937500 0.012500
0.487500 0.937500 0.012500
0.550000 0.937500 0.012500
0.612500 0.937500 0.012500
0.675000 0.937500 0.012500
0.737500 0.937500 0.012500
0.800000 0.937500 0.012500
0.862500 0.937500 0.012500
0.925000 0.937500 0.012500
0.987500 0.937500 0.012500
1.000000 0.937500 0.012500
0.050000 1.000000 0.012500
0.112500 1.000000 0.012500
0.175000 1.000000 0.012500
0.237500 1.000000 0.012500
0.300000 1.000000 0.012500
0.362500 1.000000 0.012500
0.425000 1.000000 0.012500
0.487500 1.000000 0.012500
0.550000 1.000000 0.012500
0.612500 1.000000 0.012500
0.675000 1.000000 0.012500
0.737500 1.000000 0.012500
0.800000 1.000000 0.012500
0.862500 1.000000 0.012500
0.925000 1.000000 0.012500
0.987500 1.000000 0.012500
1.000000 1.000000 0.012500
0.050000 0.000000 0.075000
0.112500 0.000000 0.075000
0.175000 0.000000 0.075000
0.237500 0.000000 0.075000
0.300000 0.000000 0.075000
0.362500 0.000000 0.075000
0.425000 0.000000 0.075000
0.487500 0.000000 0.075000
0.550000 0.000000 0.075000
0.612500 0.000000 0.075000
0.675000 0.000000 0.075000
0.737500 0.000000 0.075000
0.800000 0.000000 0.075000
0.862500 0.000000 0.075000
0.925000 0.000000 0.075000
0.987500 0.000000 0.075000
1.000000 0.000000 0.075000
0.050000 0.062500 0.075000
0.112500 0.062500 0.075000
0.175000 0.062500 0.075000
0.237500 0.062500 0.075000
0.300000 0.062500 0.075000
0.362500 0.062500 0.075000
0.425000 0.062500 0.075000
0.487500 0.062500 0.075000
0.550000 0.062500 0.075000
0.612500 0.062500 0.075000
0.675000 0.062500 0.075000
0.737500 0.062500 0.075000
0.800000 0.062500 0.075000
0.862500 0.062500 0.075000
0.925000 0.062500 0.075000
0.987500 0.062500 0.075000
1.000000 0.062500 0.075000
0.050000 0.125000 0.075000
0.112500 0.125000 0.075000
0.175000 0.125000 0.075000
0.237500 0.125000 0.075000
0.300000 0.125000 0.075000
0.362500 0.125000 0.075000
0.425000 0.125000 0.075000
0.487500 0.125000 0.075000
0.550000 0.125000 0.075000
0.612500 0.125000 0.075000
0.675000 0.125000 0.075000
0.737500 0.125000 0.075000
0.800000 0.125000 0.075000
0.862500 0.125000 0.075000
0.925000 0.125000 0.075000
0.987500 0.125000 0.075000
1.000000 0.125000 0.075000
0.050000 0.187500 0.075000
0.112500 0.187500 0.075000
0.175000 0.187500 0.075000
0.237500 0.187500 0.075000
0.300000 0.187500 0.075000
0.362500 0.187500 0.075000
0.425000 0.187500 0.075000
0.487500 0.187500 0.075000
0.550000 0.187500 0.075000
0.612500 0.187500 0.075000
0.675000 0.187500 0.075000
0.737500 0.187500 0.075000
0.800000 0.187500 0.075000
0.862500 0.187500 0.075000
0.925000 0.187500 0.075000
0.987500 0.187500 0.075000
1.000000 0.187500 0.075000
0.050000 0.250000 0.075000
0.112500 0.250000 0.075000
0.175000 0.250000 0.075000
0.237500 0.250000 0.075000
0.300000 0.250000 0.075000
0.362500 0.250000 0.075000
0.425000 0.250000 0.075000
0.487500 0.250000 0.075000
0.550000 0.250000 0.075000
0.612500 0.250000 0.075000
0.675000 0.250000 0.075000
0.737500 0.250000 0.075000
0.800000 0.250000 0.075000
0.862500 0.250000 0.075000
0.925000 0.250000 0.075000
0.987500 0.250000 0.075000
1.000000 0.250000 0.075000
0.050000 0.312500 0.075000
0.112500 0.312500 0.075000
0.175000 0.312500 0.075000
0.237500 0.312500 0.075000
0.300000 0.312500 0.075000
0.362500 0.312500 0.075000
0.425000 0.312500 0.075000
0.487500 0.312500 0.075000
0.550000 0.312500 0.075000
0.612500 0.312500 0.075000
0.675000 0.312500 0.075000
0.737500 0.312500 0.075000
0.800000 0.312500 0.075000
0.862500 0.312500 0.075000
0.925000 0.312500 0.075000
0.987500 0.312500 0.075000
1.000000 0.312500 0.075000
0.050000 0.375000 0.075000
0.112500 0.375000 0.075000
0.175000 0.375000 0.075000
0.237500 0.375000 0.075000
0.300000 0.375000 0.075000
0.362500 0.375000 0.075000
0.425000 0.375000 0.075000
0.487500 0.375000 0.075000
0.550000 0.375000 0.075000
0.612500 0.375000 0.075000
0.675000 0.375000 0.075000
0.737500 0.375000 0.075000
0.800000 0.375000 0.075000
0.862500 0.375000 0.075000
0.925000 0.375000 0.075000
0.987500 0.375000 0.075000
1.000000 0.375000 0.075000
0.050000 0.437500 0.075000
0.112500 0.437500 0.075000
0.175000 0.437500 0.075000
0.237500 0.437500 0.075000
0.300000 0.437500 0.075000
0.362500 0.437500 0.075000
0.425000 0.437500 0.075000
0.487500 0.437500 0.075000
0.550000 0.437500 0.075000
0.612500 0.437500 0.075000
0.675000 0.437500 0.075000
0.737500 0.437500 0.075000
0.800000 0.437500 0.075000
0.862500 0.437500 0.075000
0.925000 0.437500 0.075000
0.987500 0.437500 0.075000
1.000000 0.437500 0.075000
0.050000 0.500000 0.075000
0.112500 0.500000 0.075000
0.175000 0.500000 0.075000
0.237500 0.500000 0.075000
0.300000 0.500000 0.075000
0.362500 0.500000 0.075000
0.425000 0.500000 0.075000
0.487500 0.500000 0.075000
0.550000 0.500000 0.075000
0.612500 0.500000 0.075000
0.675000 0.500000 0.075000
0.737500 0.500000 0.075000
0.800000 0.500000 0.075000
0.862500 0.500000 0.075000
0.925000 0.500000 0.075000
0.987500 0.500000 0.075000
1.000000 0.500000 0.075000
0.050000 0.562500 0.075000
0.112500 0.562500 0.075000
0.175000 0.562500 0.075000
0.237500 0.562500 0.075000
0.300000 0.562500 0.075000
0.362500 0.562500 0.075000
0.425000 0.562500 0.075000
0.487500 0.562500 0.075000
0.550000 0.562500 0.075000
0.612500 0.562500 0.075000
0.675000 0.562500 0.075000
0.737500 0.562500 0.075000
0.800000 0.562500 0.075000
0.862500 0.562500 0.075000
0.925000 0.562500 0.075000
0.987500 0.562500 0.075000
1.000000 0.562500 0.075000
0.050000 0.625000 0.075000
0.112500 0.625000 0.075000
0.175000 0.625000 0.075000
0.237500 0.625000 0.075000
0.300000 0.625000 0.075000
0.362500 0.625000 0.075000
0.425000 0.625000 0.075000
0.487500 0.625000 0.075000
0.550000 0.625000 0.075000
0.612500 0.625000 0.075000
0.675000 0.625000 0.075000
0.737500 0.625000 0.075000
0.800000 0.625000 0.075000
0.862500 0.625000 0.075000
0.925000 0.625000 0.075000
0.987500 0.625000 0.075000
1.000000 0.625000 0.075000
0.050000 0.687500 0.075000
0.112500 0.687500 0.075000
0.175000 0.687500 0.075000
0.237500 0.687500 0.075000
0.300000 0.687500 0.075000
0.362500 0.687500 0.075000
0.425000 0.687500 0.075000
0.487500 0.687500 0.075000
0.550000 0.687500 0.075000
0.612500 0.687500 0.075000
0.675000 0.687500 0.075000
0.737500 0.687500 0.075000
0.800000 0.687500 0.075000
0.862500 0.687500 0.075000
0.925000 0.687500 0.075000
0.987500 0.687500 0.075000
1.000000 0.687500 0.075000
0.050000 0.750000 0.075000
0.112500 0.750000 0.075000
0.175000 0.750000 0.075000
0.237500 0.750000 0.075000
0.300000 0.750000 0.075000
0.362500 0.750000 0.075000
0.425000 0.750000 0.075000
0.487500 0.750000 0.075000
0.550000 0.750000 0.075000
0.612500 0.750000 0.075000
0.675000 0.750000 0.075000
0.737500 0.750000 0.075000
0.800000 0.750000 0.075000
0.862500 0.750000 0.075000
0.925000 0.750000 0.075000
0.987500 0.750000 0.075000
1.000000 0.750000 0.075000
0.050000 0.812500 0.075000
0.112500 0.812500 0.075000
0.175000 0.812500 0.075000
0.237500 0.812500 0.075000
0.300000 0.812500 0.075000
0.362500 0.812500 0.075000
0.425000 0.812500 0.075000
0.487500 0.812500 0.075000
0.550000 0.812500 0.075000
0.612500 0.812500 0.075000
0.675000 0.812500 0.075000
0.737500 0.812500 0.075000
0.800000 0.812500 0.075000
0.862500 0.812500 0.075000
0.925000 0.812500 0.075000
0.987500 0.812500 0.075000
1.000000 0.812500 0.075000
0.050000 0.875000 0.075000
0.112500 0.875000 0.075000
0.175000 0.875000 0.075000
0.237500 0.875000 0.075000
0.300000 0.875000 0.075000
0.362500 0.875000 0.075000
0.425000 0.875000 0.075000
0.487500 0.875000 0.075000
0.550000 0.875000 0.075000
0.612500 0.875000 0.075000
0.675000 0.875000 0.075000
0.737500 0.875000 0.075000
0.800000 0.875000 0.075000
0.862500 0.875000 0.075000
0.925000 0.875000 0.075000
0.987500 0.875000 0.075000
1.000000 0.875000 0.075000
0.050000 0.937500 0.075000
0.112500 0.937500 0.075000
0.175000 0.937500 0.075000
0.237500 0.937500 0.075000
0.300000 0.937500 0.075000
0.362500 0.937500 0.075000
0.425000 0.937500 0.075000
0.487500 0.937500 0.075000
0.550000 0.937500 0.075000
0.612500 0.937500 0.075000
0.675000 0.937500 0.075000
0.737500 0.937500 0.075000
0.800000 0.937500 0.075000
0.862500 0.937500 0.075000
0.925000 0.937500 0.075000
0.987500 0.937500 0.075000
1.000000 0.937500 0.075000
0.050000 1.000000 0.075000
0.112500 1.000000 0.075000
0.175000 1.000000 0.075000
0.237500 1.000000 0.075000
0.300000 1.000000 0.075000
0.362500 1.000000 0.075000
0.425000 1.000000 0.075000
0.487500 1.000000 0.075000
0.550000 1.000000 0.075000
0.612500 1.000000 0.075000
0.675000 1.000000 0.075000
0.737500 1.000000 0.075000
0.800000 1.000000 0.075000
0.862500 1.000000 0.075000
0.925000 1.000000 0.075000
0.987500 1.000000 0.075000
1.000000 1.000000 0.075000
0.050000 0.000000 0.137500
0.112500 0.000000 0.137500
0.175000 0.000000 0.137500
0.237500 0.000000 0.137500
0.300000 0.000000 0.137500
0.362500 0.000000 0.137500
0.425000 0.000000 0.137500
0.487500 0.000000 0.137500
0.550000 0.000000 0.137500
0.612500 0.000000 0.137500
0.675000 0.000000 0.137500
0.737500 0.000000 0.137500
0.800000 0.000000 0.137500
0.862500 0.000000 0.137500
0.925000 0.000000 0.137500
0.987500 0.000000 0.137500
1.000000 0.000000 0.137500
0.050000 0.062500 0.137500
